svg/device/tv_2_line.svg

<?xml version="1.0" encoding="UTF-8"?>
<svg width="24px" height="24px" viewBox="0 0 24 24" version="1.1" xmlns="http://www.w3.org/2000/svg" xmlns:xlink="http://www.w3.org/1999/xlink">
    <title>tv_2_line</title>
    <g id="页面-1" stroke="none" stroke-width="1" fill="none" fill-rule="evenodd">
        <g id="Device" transform="translate(-768.000000, 0.000000)">
            <g id="tv_2_line" transform="translate(768.000000, 0.000000)">
                 <path d="M24,0 L24,24 L0,24 L0,0 L24,0 Z M12.5934901,23.257841 L12.5819402,23.2595131 L12.5108777,23.2950439 L12.4918791,23.2987469 L12.4918791,23.2987469 L12.4767152,23.2950439 L12.4056548,23.2595131 C12.3958229,23.2563662 12.3870493,23.2590235 12.3821421,23.2649074 L12.3780323,23.275831 L12.360941,23.7031097 L12.3658947,23.7234994 L12.3769048,23.7357139 L12.4804777,23.8096931 L12.4953491,23.8136134 L12.4953491,23.8136134 L12.5071152,23.8096931 L12.6106902,23.7357139 L12.6232938,23.7196733 L12.6232938,23.7196733 L12.6266527,23.7031097 L12.609561,23.275831 C12.6075724,23.2657013 12.6010112,23.2592993 12.5934901,23.257841 L12.5934901,23.257841 Z M12.8583906,23.1452862 L12.8445485,23.1473072 L12.6598443,23.2396597 L12.6498822,23.2499052 L12.6498822,23.2499052 L12.6471943,23.2611114 L12.6650943,23.6906389 L12.6699349,23.7034178 L12.6699349,23.7034178 L12.678386,23.7104931 L12.8793402,23.8032389 C12.8914285,23.8068999 12.9022333,23.8029875 12.9078286,23.7952264 L12.9118235,23.7811639 L12.8776777,23.1665331 C12.8752882,23.1545897 12.8674102,23.1470016 12.8583906,23.1452862 L12.8583906,23.1452862 Z M12.1430473,23.1473072 C12.1332178,23.1423925 12.1221763,23.1452606 12.1156365,23.1525954 L12.1099173,23.1665331 L12.0757714,23.7811639 C12.0751323,23.7926639 12.0828099,23.8018602 12.0926481,23.8045676 L12.108256,23.8032389 L12.3092106,23.7104931 L12.3186497,23.7024347 L12.3186497,23.7024347 L12.3225043,23.6906389 L12.340401,23.2611114 L12.337245,23.2485176 L12.337245,23.2485176 L12.3277531,23.2396597 L12.1430473,23.1473072 Z" id="MingCute" fill-rule="nonzero"></path>
                <path d="M16.9497,4.00691 C17.3402,3.61639 17.3402,2.98322 16.9497,2.5927 C16.5591,2.20217 15.926,2.20217 15.5355,2.5927 L11.6464,6.48179 C11.4511,6.67705 11.1345,6.67705 10.9393,6.48179 L8.46439,4.00691 C8.07387,3.61639 7.4407,3.61639 7.05018,4.00691 C6.65965,4.39744 6.65965,5.0306 7.05018,5.42113 L8.46439,6.83534 C8.52134,6.89229 8.57958,6.94716 8.63902,6.99996 L5,6.99996 C3.89543,6.99996 3,7.89539 3,8.99996 L3,19 C3,20.1045 3.89543,21 5,21 L19,21 C20.1046,21 21,20.1045 21,19 L21,8.99996 C21,7.89539 20.1046,6.99996 19,6.99996 L13.9466,6.99996 C14.0061,6.94716 14.0643,6.89229 14.1212,6.83534 L16.9497,4.00691 Z M5,8.99996 L19,8.99996 L19,19 L5,19 L5,8.99996 Z" id="形状" fill="#09244B"></path>
            </g>
        </g>
    </g>
</svg>

<svg xmlns="http://www.w3.org/2000/svg" width="24" height="24"><g fill="none" fill-rule="evenodd"><path d="M24 0v24H0V0h24ZM12.593 23.258l-.011.002-.071.035-.02.004-.014-.004-.071-.035c-.01-.004-.019-.001-.024.005l-.004.01-.017.428.005.02.01.013.104.074.015.004.012-.004.104-.074.012-.016.004-.017-.017-.427c-.002-.01-.009-.017-.017-.018Zm.265-.113-.013.002-.185.093-.01.01-.003.011.018.43.005.012.008.007.201.093c.012.004.023 0 .029-.008l.004-.014-.034-.614c-.003-.012-.01-.02-.02-.022Zm-.715.002a.023.023 0 0 0-.027.006l-.006.014-.034.614c0 .012.007.02.017.024l.015-.002.201-.093.01-.008.004-.011.017-.43-.003-.012-.01-.01-.184-.092Z"/><path fill="#09244B" d="M16.95 4.007a1 1 0 0 0-1.414-1.414l-3.89 3.889a.5.5 0 0 1-.707 0L8.464 4.007A1 1 0 0 0 7.05 5.42l1.414 1.414c.057.057.116.112.175.165H5a2 2 0 0 0-2 2v10a2 2 0 0 0 2 2h14a2 2 0 0 0 2-2V9a2 2 0 0 0-2-2h-5.053c.06-.053.117-.108.174-.165l2.829-2.828ZM5 9h14v10H5V9Z"/></g></svg>
